X: 135
T: No_60_Song_of_Restoring_the_Mourners.krn
%%abc-version 2.0
%%abcx-abcm2ps-target-version 5.9.1 (29 Sep 2008)
%%abc-creator hum2abc beta
%%abcx-conversion-date 2020/08/10 18:54:57
%%gracespace 0 6 6
%%humdrum-veritas 1099758628
%%humdrum-veritas-data 2950021840
%%linebreak <none>
%%barnumbers 0
L: 1/8
M: 5/8
%%staves {1 2}
V: 1 clef=bass
V: 2 clef=bass
K: Gb
[V:1] [K:clef=bass][M:5/8]EEEB,B, | 
[V:2] [K:clef=bass][M:5/8]G,,G,,G,,G,,G,, | 
[V:1] E3-E2 | 
[V:2] G,,G,,G,,G,,G,, | 
[V:1] EEDB,A, | 
[V:2] (3:2:1z4 | 
[V:1] B,3-B,2 | 
[V:2] (3:2:1z4 | 
[V:1] B,B,A,E,E, | 
[V:2] (3:2:1z4 | 
[V:1] A,3-A,2 | 
[V:2] (3:2:1z4 | 
[V:1] A,A,A,E,E, ||  
[V:2] (3:2:1z4 ||  
[V:1] [M:4/8]F,>F, E, E, | 
[V:2] [M:4/8]z4 | 
[V:1] E,>E,E,2- | 
[V:2] z4 | 
[V:1] E,2-E,2- | 
[V:2] z4 | 
[V:1] E, B,, A, A, ||  
[V:2] z4 ||  
[V:1] [M:5/8]B,3-B,2 | 
[V:2] [M:5/8](3:2:1z4 | 
[V:1] E>DEDA, | 
[V:2] (3:2:1z4 | 
[V:1] B,3-B,2 | 
[V:2] (3:2:1z4 | 
[V:1] B,B,A,E,E, | 
[V:2] (3:2:1z4 | 
[V:1] A,3-A,2 | 
[V:2] (3:2:1z4 | 
[V:1] A,A,A,E,E, ||  
[V:2] (3:2:1z4 ||  
[V:1] [M:4/8]F,>F, E, E, | 
[V:2] [M:4/8]z4 | 
[V:1] E,>E,E,2- | 
[V:2] z4 | 
[V:1] E,2-E,2 |]  
[V:2] z4 |]  


